Yaru++/actions/16/password-copy.svg

<svg height="16" width="16" xmlns="http://www.w3.org/2000/svg"><g fill="#808080"><g transform="matrix(.625 0 0 .625 29.654686 5.488943)"><path d="m-40.647458 3.0176906v9.0000004h12v-9.0000004zm1 1h10v7.0000004h-10z"/><path d="m-34.647458-3.9823094a5 5 0 0 0 -5 5v2h1v-2c0-2.222 1.778-4 4-4s4 1.778 4 4v2h1v-2a5 5 0 0 0 -5-5z"/><path d="m-40.647458 3.0176906v9.0000004h12v-9.0000004zm11 8.0000004v-7.0000004 7.0000004h-10z"/></g><path d="m5.4941401-.0000003c-1.2582001.0145-2.17889-.030604-2.9316401.3847656-.37637.20766-.673231.5593869-.837891.9980469-.16467.43867-.224609.9595775-.224609 1.6171875v10.0000003c0 .65761.0599 1.178578.224609 1.617188.16468.43861.461531.788523.837891.996093.7527201.41514 1.67354.371649 2.9316401.386719h.002 5.0058599.0039c1.25819-.0145 2.178891.0306 2.931641-.384766.37637-.20766.673231-.559387.837891-.998046.164539-.438671.224618-.959578.224618-1.617188v-10.0000003c0-.65761-.0599-1.1785775-.224609-1.6171875-.16468-.43861-.461531-.7885237-.837891-.9960937-.75272-.41513-1.673551-.3716488-2.931641-.3867188h-.002-5.0058589zm.0059 1h4.9999999c1.25862.0152 2.089098.059899 2.455078.2617188.18342.1011599.287226.2128562.384766.4726562.09741.25979.160156.673235.160156 1.265625v10.0000003c0 .59239-.0626 1.005725-.160156 1.265625-.0976.25991-.201356.371466-.384766.472656-.36596.20192-1.196558.247009-2.455078.261719h-4.994141-.0059c-1.25863-.0152-2.089098-.0599-2.455078-.261719-.18342-.10116-.287226-.212856-.384766-.472656-.09755-.25979-.160156-.673235-.160156-1.265625v-10.0000003c0-.59239.0626-1.005725.160156-1.265625.0976-.25991.203309-.3714662.386719-.4726562.36595-.20191 1.194605-.2470188 2.453125-.2617188z"/></g></svg>

<?xml version="1.0" encoding="UTF-8" standalone="no"?>
<svg
   xmlns:osb="http://www.openswatchbook.org/uri/2009/osb"
   xmlns:dc="http://purl.org/dc/elements/1.1/"
   xmlns:cc="http://creativecommons.org/ns#"
   xmlns:rdf="http://www.w3.org/1999/02/22-rdf-syntax-ns#"
   xmlns:svg="http://www.w3.org/2000/svg"
   xmlns="http://www.w3.org/2000/svg"
   xmlns:sodipodi="http://sodipodi.sourceforge.net/DTD/sodipodi-0.dtd"
   xmlns:inkscape="http://www.inkscape.org/namespaces/inkscape"
   width="16"
   height="16"
   version="1.1"
   id="svg15"
   sodipodi:docname="password-copy.svg"
   inkscape:version="0.92.4 (5da689c313, 2019-01-14)">
  <metadata
     id="metadata19">
    <rdf:RDF>
      <cc:Work
         rdf:about="">
        <dc:format>image/svg+xml</dc:format>
        <dc:type
           rdf:resource="http://purl.org/dc/dcmitype/StillImage" />
        <dc:title></dc:title>
      </cc:Work>
    </rdf:RDF>
  </metadata>
  <sodipodi:namedview
     pagecolor="#ffffff"
     bordercolor="#666666"
     borderopacity="1"
     objecttolerance="10"
     gridtolerance="10"
     guidetolerance="10"
     inkscape:pageopacity="0"
     inkscape:pageshadow="2"
     inkscape:window-width="1920"
     inkscape:window-height="1016"
     id="namedview17"
     showgrid="false"
     inkscape:zoom="14.75"
     inkscape:cx="-6.9491525"
     inkscape:cy="8"
     inkscape:window-x="0"
     inkscape:window-y="27"
     inkscape:window-maximized="1"
     inkscape:current-layer="svg15" />
  <defs
     id="defs9">
    <linearGradient
       id="linearGradient5606"
       osb:paint="solid">
      <stop
         id="stop5608"
         offset="0"
         style="stop-color:#000000" />
    </linearGradient>
    <linearGradient
       id="linearGradient4526"
       osb:paint="solid">
      <stop
         id="stop4528"
         offset="0"
         style="stop-color:#ffffff" />
    </linearGradient>
    <linearGradient
       id="linearGradient3600-4"
       osb:paint="gradient">
      <stop
         id="stop3602-7"
         offset="0"
         style="stop-color:#f4f4f4" />
      <stop
         id="stop3604-6"
         offset="1"
         style="stop-color:#dbdbdb" />
    </linearGradient>
  </defs>
  <g
     id="g832"
     font-weight="400"
     style="color:#000000;font-weight:400;font-family:sans-serif;fill:#808080"
     transform="matrix(0.625,0,0,0.625,29.654686,5.4889431)">
    <path
       id="path826"
       overflow="visible"
       d="m -40.647458,3.0176906 v 9.0000004 h 12 V 3.0176906 Z m 1,1 h 10 v 7.0000004 h -10 z"
       inkscape:connector-curvature="0"
       style="overflow:visible" />
    <path
       id="path828"
       overflow="visible"
       d="m -34.647458,-3.9823094 a 5,5 0 0 0 -5,5 v 2 h 1 v -2 c 0,-2.222 1.778,-4 4,-4 2.222,0 4,1.778 4,4 v 2 h 1 v -2 a 5,5 0 0 0 -5,-5 z"
       inkscape:connector-curvature="0"
       style="overflow:visible" />
    <path
       id="path830"
       overflow="visible"
       d="m -40.647458,3.0176906 v 9.0000004 h 12 V 3.0176906 Z m 11,8.0000004 V 4.0176906 11.017691 h -10 z"
       inkscape:connector-curvature="0"
       style="overflow:visible"
       sodipodi:nodetypes="cccccccccc" />
  </g>
  <path
     style="fill:#808080"
     d="M 5.4941401,-3e-7 C 4.23594,0.0144997 3.3152501,-0.0306043 2.5625,0.3847653 2.18613,0.5924253 1.889269,0.9441522 1.724609,1.3828122 1.559939,1.8214822 1.5,2.3423897 1.5,2.9999997 V 13 c 0,0.65761 0.0599,1.178578 0.224609,1.617188 0.16468,0.43861 0.461531,0.788523 0.837891,0.996093 C 3.3152201,16.028421 4.23604,15.98493 5.4941401,16 h 0.002 5.0058599 0.0039 c 1.25819,-0.0145 2.178891,0.0306 2.931641,-0.384766 0.37637,-0.20766 0.673231,-0.559387 0.837891,-0.998046 C 14.439971,14.178517 14.50005,13.65761 14.50005,13 V 2.9999997 c 0,-0.65761 -0.0599,-1.1785775 -0.224609,-1.6171875 C 14.110761,0.9442022 13.81391,0.5942885 13.43755,0.3867185 12.68483,-0.0284115 11.763999,0.0150697 10.505909,-3e-7 h -0.002 -5.0058589 z m 0.0059,1 H 10.50004 c 1.25862,0.0152 2.089098,0.059899 2.455078,0.2617188 0.18342,0.1011599 0.287226,0.2128562 0.384766,0.4726562 0.09741,0.25979 0.160156,0.673235 0.160156,1.265625 V 13 c 0,0.59239 -0.0626,1.005725 -0.160156,1.265625 -0.0976,0.25991 -0.201356,0.371466 -0.384766,0.472656 C 12.589158,14.940201 11.75856,14.98529 10.50004,15 H 5.505899 5.499999 C 4.241369,14.9848 3.410901,14.9401 3.044921,14.738281 2.861501,14.637121 2.757695,14.525425 2.660155,14.265625 2.562605,14.005835 2.499999,13.59239 2.499999,13 V 2.9999997 c 0,-0.59239 0.0626,-1.005725 0.160156,-1.265625 0.0976,-0.25991 0.203309,-0.3714662 0.386719,-0.4726562 0.36595,-0.20191 1.194605,-0.2470188 2.453125,-0.2617188 z"
     id="path11"
     inkscape:connector-curvature="0"
     sodipodi:nodetypes="cccsscsccccccssccccccccccsscccccccssccc" />
</svg>
